;FLAVOR:Marlin
;TIME:5988
;Filament used: 4.39649m
;Layer height: 0.2
;MINX:111.76
;MINY:93.976
;MINZ:0.2
;MAXX:188.24
;MAXY:186.227
;MAXZ:18
;Generated with Cura_SteamEngine 4.13.1
M140 S60
M105
M190 S60
M104 S200
M105
M109 S200
M82 ;absolute extrusion mode
M201 X500.00 Y500.00 Z100.00 E5000.00 ;Setup machine max acceleration
M203 X500.00 Y500.00 Z10.00 E50.00 ;Setup machine max feedrate
M204 P500.00 R1000.00 T500.00 ;Setup Print/Retract/Travel acceleration
M205 X8.00 Y8.00 Z0.40 E5.00 ;Setup Jerk
M220 S100 ;Reset Feedrate
M221 S100 ;Reset Flowrate

G28 ;Home

G92 E0 ;Reset Extruder
G1 Z2.0 F3000 ;Move Z Axis up
G1 X10.1 Y20 Z0.28 F5000.0 ;Move to start position
G1 X10.1 Y200.0 Z0.28 F1500.0 E15 ;Draw the first line
G1 X10.4 Y200.0 Z0.28 F5000.0 ;Move to side a little
G1 X10.4 Y20 Z0.28 F1500.0 E30 ;Draw the second line
G92 E0 ;Reset Extruder
G1 Z2.0 F3000 ;Move Z Axis up

G92 E0
G92 E0
G1 F2700 E-5
;LAYER_COUNT:90
;LAYER:0
M107 P1
G0 F2400 X139.077 Y97.323 Z0.2
;TYPE:SKIRT
G1 F2700 E0
G1 F1200 X139.56 Y96.699 E0.02625
G1 X140.103 Y96.126 E0.0525
G1 X140.702 Y95.611 E0.07878
G1 X141.35 Y95.16 E0.10503
G1 X142.041 Y94.776 E0.13133
G1 X142.766 Y94.464 E0.15758
G1 X143.519 Y94.227 E0.18383
G1 X144.293 Y94.068 E0.21012
G1 X145.078 Y93.987 E0.23636
G1 X145.477 Y93.977 E0.24964
G1 X148.407 Y93.976 E0.34709
G1 X149.196 Y94.016 E0.37337
G1 X149.931 Y94.128 E0.3981
G1 X150.223 Y94.068 E0.40801
G1 X151.008 Y93.987 E0.43426
G1 X151.407 Y93.977 E0.44753
G1 X154.337 Y93.976 E0.54499
G1 X155.126 Y94.016 E0.57126
G1 X155.907 Y94.135 E0.59754
G1 X156.671 Y94.333 E0.62379
G1 X157.412 Y94.606 E0.65005
G1 X158.121 Y94.954 E0.67632
G1 X158.792 Y95.371 E0.7026
G1 X159.416 Y95.854 E0.72884
G1 X159.989 Y96.398 E0.75512
G1 X160.504 Y96.996 E0.78137
G1 X160.956 Y97.644 E0.80765
G1 X161.34 Y98.334 E0.83391
G1 X161.652 Y99.06 E0.86019
G1 X161.889 Y99.813 E0.88645
G1 X162.049 Y100.586 E0.91271
G1 X162.13 Y101.372 E0.93899
G1 X162.14 Y101.776 E0.95243
G1 X162.14 Y107.228 E1.13376
G1 X162.578 Y107.567 E1.15218
G1 X163.151 Y108.11 E1.17844
G1 X163.666 Y108.709 E1.20471
G1 X164.117 Y109.357 E1.23097
G1 X164.501 Y110.048 E1.25727
G1 X164.813 Y110.773 E1.28352
G1 X165.05 Y111.526 E1.30977
G1 X165.209 Y112.3 E1.33605
G1 X165.29 Y113.085 E1.3623
G1 X165.3 Y113.487 E1.37568
G1 X165.3 Y116.231 E1.46694
G1 X166.424 Y116.755 E1.50819
G1 X167.268 Y117.213 E1.54013
G1 X170.157 Y119.022 E1.6535
G1 X170.942 Y119.585 E1.68563
G1 X173.586 Y121.738 E1.79904
G1 X174.301 Y122.398 E1.8314
G1 X176.654 Y124.861 E1.9447
G1 X177.273 Y125.594 E1.97661
G1 X179.307 Y128.329 E2.08997
G1 X179.837 Y129.144 E2.1223
G1 X181.515 Y132.111 E2.23568
G1 X181.859 Y132.796 E2.26117
G1 X181.961 Y133.032 E2.26972
G1 X183.139 Y135.89 E2.37254
G1 X183.401 Y136.158 E2.385
G1 X183.894 Y136.775 E2.41127
G1 X184.322 Y137.439 E2.43755
G1 X184.681 Y138.142 E2.4638
G1 X184.967 Y138.878 E2.49006
G1 X185.177 Y139.639 E2.51632
G1 X185.308 Y140.418 E2.54259
G1 X185.362 Y141.331 E2.57301
G1 X185.361 Y146.73 E2.75258
G1 X185.321 Y147.519 E2.77886
G1 X185.249 Y147.986 E2.79458
G1 X185.307 Y148.325 E2.80602
G1 X185.361 Y149.244 E2.83663
G1 X185.362 Y154.644 E3.01624
G1 X185.322 Y155.432 E3.04248
G1 X185.203 Y156.213 E3.06876
G1 X185.005 Y156.977 E3.09501
G1 X184.731 Y157.718 E3.12129
G1 X184.384 Y158.427 E3.14754
G1 X183.966 Y159.098 E3.17383
G1 X183.483 Y159.722 E3.20008
G1 X183.144 Y160.072 E3.21628
G1 X182.07 Y162.714 E3.31114
G1 X181.689 Y163.518 E3.34073
G1 X180.183 Y166.272 E3.44513
G1 X179.715 Y167.024 E3.47459
G1 X177.91 Y169.585 E3.5788
G1 X177.355 Y170.283 E3.60846
G1 X175.267 Y172.624 E3.71279
G1 X174.638 Y173.253 E3.74238
G1 X172.297 Y175.341 E3.84671
G1 X171.601 Y175.894 E3.87628
G1 X169.039 Y177.701 E3.98056
G1 X168.283 Y178.172 E4.01018
G1 X165.529 Y179.677 E4.11456
G1 X164.927 Y179.973 E4.13688
G1 X164.652 Y180.09 E4.14682
G1 X162.097 Y181.125 E4.2385
G1 X161.829 Y181.388 E4.25099
G1 X161.212 Y181.881 E4.27726
G1 X160.548 Y182.309 E4.30354
G1 X159.845 Y182.668 E4.32979
G1 X159.109 Y182.954 E4.35605
G1 X158.348 Y183.164 E4.38231
G1 X157.569 Y183.295 E4.40858
G1 X156.656 Y183.349 E4.439
G1 X151.257 Y183.348 E4.61857
G1 X150.468 Y183.308 E4.64485
G1 X150.001 Y183.236 E4.66057
G1 X149.662 Y183.294 E4.672
G1 X148.743 Y183.348 E4.70262
G1 X143.344 Y183.349 E4.8822
G1 X142.556 Y183.309 E4.90844
G1 X141.775 Y183.19 E4.93471
G1 X141.011 Y182.992 E4.96096
G1 X140.27 Y182.718 E4.98724
G1 X139.561 Y182.371 E5.0135
G1 X138.89 Y181.953 E5.03979
G1 X138.266 Y181.47 E5.06603
G1 X137.915 Y181.133 E5.08222
G1 X135.321 Y180.08 E5.17533
G1 X134.922 Y179.904 E5.18984
G1 X134.471 Y179.677 E5.20663
G1 X131.717 Y178.172 E5.31101
G1 X130.961 Y177.701 E5.34064
G1 X128.399 Y175.894 E5.44491
G1 X127.703 Y175.341 E5.47448
G1 X125.362 Y173.253 E5.57881
G1 X124.733 Y172.624 E5.6084
G1 X122.645 Y170.283 E5.71273
G1 X122.09 Y169.585 E5.74239
G1 X120.285 Y167.024 E5.8466
G1 X119.817 Y166.272 E5.87606
G1 X118.311 Y163.518 E5.98046
G1 X117.928 Y162.71 E6.0102
G1 X116.863 Y160.086 E6.10439
G1 X116.613 Y159.832 E6.11625
G1 X116.118 Y159.217 E6.1425
G1 X115.688 Y158.554 E6.16879
G1 X115.328 Y157.852 E6.19503
G1 X115.04 Y157.117 E6.22128
G1 X114.828 Y156.356 E6.24756
G1 X114.694 Y155.578 E6.27381
G1 X114.638 Y154.644 E6.30493
G1 X114.639 Y149.244 E6.48454
G1 X114.679 Y148.455 E6.51082
G1 X114.751 Y147.987 E6.52656
G1 X114.693 Y147.649 E6.53797
G1 X114.639 Y146.73 E6.56859
G1 X114.638 Y141.331 E6.74816
G1 X114.678 Y140.543 E6.7744
G1 X114.797 Y139.762 E6.80068
G1 X114.995 Y138.998 E6.82693
G1 X115.269 Y138.257 E6.85321
G1 X115.616 Y137.548 E6.87946
G1 X116.034 Y136.877 E6.90575
G1 X116.517 Y136.253 E6.932
G1 X116.857 Y135.9 E6.9483
G1 X118.062 Y132.979 E7.0534
G1 X118.484 Y132.113 E7.08544
G1 X120.162 Y129.146 E7.19881
G1 X120.692 Y128.332 E7.23112
G1 X122.727 Y125.595 E7.34455
G1 X123.347 Y124.86 E7.37654
G1 X125.7 Y122.398 E7.48981
G1 X126.412 Y121.74 E7.52205
G1 X129.056 Y119.586 E7.63548
G1 X129.843 Y119.022 E7.66768
G1 X132.73 Y117.214 E7.78098
G1 X133.331 Y116.874 E7.80395
G1 X133.634 Y116.725 E7.81518
G1 X134.7 Y116.229 E7.85428
G1 X134.7 Y113.487 E7.94548
G1 X134.74 Y112.698 E7.97176
G1 X134.859 Y111.918 E7.998
G1 X135.057 Y111.153 E8.02428
G1 X135.331 Y110.413 E8.05053
G1 X135.679 Y109.704 E8.0768
G1 X136.097 Y109.033 E8.10309
G1 X136.58 Y108.409 E8.12934
G1 X137.123 Y107.836 E8.15559
G1 X137.68 Y107.357 E8.18003
G1 X137.68 Y101.777 E8.36562
G1 X137.72 Y100.988 E8.39189
G1 X137.839 Y100.208 E8.41814
G1 X138.037 Y99.443 E8.44442
G1 X138.311 Y98.703 E8.47067
G1 X138.659 Y97.994 E8.49693
G1 X139.077 Y97.323 E8.52323
G0 F2400 X139.474 Y97.454
G1 F1200 X139.955 Y96.854 E8.54881
G1 X140.496 Y96.307 E8.57439
G1 X141.091 Y95.819 E8.59999
G1 X141.733 Y95.396 E8.62556
G1 X142.416 Y95.041 E8.65116
G1 X143.131 Y94.76 E8.67671
G1 X143.873 Y94.554 E8.70233
G1 X144.631 Y94.426 E8.72789
G1 X145.477 Y94.377 E8.75608
G1 X148.407 Y94.376 E8.85353
G1 X149.176 Y94.416 E8.87914
G1 X149.925 Y94.533 E8.90436
G1 X150.561 Y94.426 E8.92581
G1 X151.407 Y94.377 E8.95399
G1 X154.337 Y94.376 E9.05144
G1 X155.106 Y94.416 E9.07706
G1 X155.865 Y94.535 E9.10261
G1 X156.609 Y94.732 E9.12821
G1 X157.328 Y95.006 E9.1538
G1 X158.014 Y95.353 E9.17937
G1 X158.661 Y95.769 E9.20495
G1 X159.261 Y96.25 E9.23053
G1 X159.808 Y96.79 E9.25609
G1 X160.296 Y97.385 E9.28169
G1 X160.72 Y98.027 E9.30728
G1 X161.075 Y98.709 E9.33285
G1 X161.357 Y99.425 E9.35845
G1 X161.563 Y100.166 E9.38403
G1 X161.691 Y100.925 E9.40963
G1 X161.74 Y101.776 E9.43798
G1 X161.74 Y107.428 E9.62596
G1 X161.823 Y107.481 E9.62924
G1 X162.423 Y107.962 E9.65482
G1 X162.97 Y108.503 E9.68041
G1 X163.458 Y109.098 E9.706
G1 X163.881 Y109.74 E9.73157
G1 X164.236 Y110.423 E9.75717
G1 X164.517 Y111.138 E9.78272
G1 X164.723 Y111.88 E9.80834
G1 X164.851 Y112.638 E9.83391
G1 X164.9 Y113.487 E9.86219
G1 X164.9 Y116.485 E9.9619
G1 X166.255 Y117.117 E10.01163
G1 X167.055 Y117.552 E10.04192
G1 X169.944 Y119.361 E10.15529
G1 X170.69 Y119.895 E10.18581
G1 X173.334 Y122.048 E10.29921
G1 X174.012 Y122.674 E10.32991
G1 X176.365 Y125.137 E10.4432
G1 X176.952 Y125.833 E10.47348
G1 X178.986 Y128.568 E10.58685
G1 X179.489 Y129.341 E10.61752
G1 X181.167 Y132.308 E10.73089
G1 X181.494 Y132.958 E10.75509
G1 X181.591 Y133.184 E10.76327
G1 X182.798 Y136.114 E10.86867
G1 X183.115 Y136.438 E10.88375
G1 X183.592 Y137.041 E10.90932
G1 X184.005 Y137.69 E10.93491
G1 X184.348 Y138.379 E10.9605
G1 X184.618 Y139.099 E10.98608
G1 X184.811 Y139.843 E11.01164
G1 X184.926 Y140.604 E11.03724
G1 X184.962 Y141.331 E11.06145
G1 X184.961 Y146.73 E11.24102
G1 X184.921 Y147.498 E11.2666
G1 X184.844 Y147.988 E11.2831
G1 X184.918 Y148.451 E11.29869
G1 X184.961 Y149.244 E11.32511
G1 X184.962 Y154.644 E11.50471
G1 X184.922 Y155.412 E11.53029
G1 X184.803 Y156.172 E11.55588
G1 X184.605 Y156.915 E11.58145
G1 X184.332 Y157.634 E11.60703
G1 X183.985 Y158.32 E11.6326
G1 X183.569 Y158.967 E11.65818
G1 X183.088 Y159.567 E11.68376
G1 X182.8 Y159.859 E11.6974
G1 X181.7 Y162.564 E11.79453
G1 X181.338 Y163.326 E11.82258
G1 X179.832 Y166.08 E11.92698
G1 X179.388 Y166.793 E11.95492
G1 X177.583 Y169.354 E12.05913
G1 X177.056 Y170.017 E12.0873
G1 X174.968 Y172.358 E12.19163
G1 X174.372 Y172.954 E12.21967
G1 X172.031 Y175.042 E12.324
G1 X171.37 Y175.567 E12.35208
G1 X168.808 Y177.374 E12.45635
G1 X168.092 Y177.821 E12.48442
G1 X165.338 Y179.326 E12.58881
G1 X164.766 Y179.607 E12.61001
G1 X164.502 Y179.719 E12.61954
G1 X161.874 Y180.784 E12.71386
G1 X161.549 Y181.102 E12.72898
G1 X160.946 Y181.579 E12.75455
G1 X160.297 Y181.992 E12.78014
G1 X159.608 Y182.335 E12.80574
G1 X158.888 Y182.605 E12.83131
G1 X158.144 Y182.798 E12.85688
G1 X157.383 Y182.913 E12.88247
G1 X156.656 Y182.949 E12.90668
G1 X151.257 Y182.948 E13.08626
G1 X150.489 Y182.908 E13.11183
G1 X149.999 Y182.831 E13.12833
G1 X149.536 Y182.905 E13.14393
G1 X148.743 Y182.948 E13.17034
G1 X143.344 Y182.949 E13.34991
G1 X142.576 Y182.909 E13.37549
G1 X141.816 Y182.79 E13.40108
G1 X141.073 Y182.592 E13.42665
G1 X140.354 Y182.319 E13.45223
G1 X139.668 Y181.972 E13.4778
G1 X139.021 Y181.556 E13.50338
G1 X138.421 Y181.075 E13.52896
G1 X138.127 Y180.786 E13.54267
G1 X135.472 Y179.709 E13.63797
G1 X135.09 Y179.542 E13.65183
G1 X134.662 Y179.326 E13.66778
G1 X131.908 Y177.821 E13.77216
G1 X131.192 Y177.374 E13.80024
G1 X128.63 Y175.567 E13.90451
G1 X127.969 Y175.042 E13.93259
G1 X125.628 Y172.954 E14.03692
G1 X125.032 Y172.358 E14.06495
G1 X122.944 Y170.017 E14.16929
G1 X122.417 Y169.354 E14.19746
G1 X120.612 Y166.793 E14.30167
G1 X120.168 Y166.08 E14.3296
G1 X118.662 Y163.326 E14.434
G1 X118.298 Y162.56 E14.46221
G1 X117.202 Y159.86 E14.55913
G1 X116.898 Y159.551 E14.57355
G1 X116.419 Y158.95 E14.59911
G1 X116.005 Y158.302 E14.62468
G1 X115.66 Y157.614 E14.65028
G1 X115.388 Y156.895 E14.67585
G1 X115.193 Y156.151 E14.70143
G1 X115.076 Y155.391 E14.72701
G1 X115.038 Y154.644 E14.75188
G1 X115.039 Y149.244 E14.93149
G1 X115.079 Y148.476 E14.95707
G1 X115.156 Y147.986 E14.97357
G1 X115.082 Y147.523 E14.98916
G1 X115.039 Y146.73 E15.01557
G1 X115.038 Y141.331 E15.19515
G1 X115.078 Y140.563 E15.22072
G1 X115.197 Y139.803 E15.24631
G1 X115.395 Y139.06 E15.27188
G1 X115.668 Y138.341 E15.29746
G1 X116.015 Y137.655 E15.32303
G1 X116.431 Y137.008 E15.34862
G1 X116.912 Y136.408 E15.37419
G1 X117.203 Y136.112 E15.388
G1 X118.432 Y133.132 E15.49521
G1 X118.832 Y132.31 E15.52562
G1 X120.51 Y129.343 E15.63899
G1 X121.013 Y128.571 E15.66964
G1 X123.048 Y125.834 E15.78307
G1 X123.636 Y125.136 E15.81343
G1 X125.989 Y122.674 E15.9267
G1 X126.665 Y122.05 E15.9573
G1 X129.309 Y119.896 E16.07073
G1 X130.055 Y119.361 E16.10126
G1 X132.942 Y117.553 E16.21456
G1 X133.513 Y117.23 E16.23638
G1 X133.803 Y117.088 E16.24712
G1 X135.1 Y116.484 E16.2947
G1 X135.1 Y113.487 E16.39438
G1 X135.14 Y112.719 E16.41996
G1 X135.259 Y111.959 E16.44555
G1 X135.457 Y111.216 E16.47112
G1 X135.731 Y110.497 E16.49671
G1 X136.078 Y109.811 E16.52228
G1 X136.494 Y109.164 E16.54787
G1 X136.975 Y108.564 E16.57344
G1 X137.516 Y108.017 E16.59903
G1 X138.08 Y107.554 E16.6233
G1 X138.08 Y101.777 E16.81545
G1 X138.12 Y101.009 E16.84103
G1 X138.239 Y100.249 E16.86661
G1 X138.437 Y99.506 E16.89219
G1 X138.711 Y98.787 E16.91778
G1 X139.058 Y98.101 E16.94335
G1 X139.474 Y97.454 E16.96893
G0 F2400 X139.872 Y97.588
G1 F1200 X140.351 Y97.014 E16.9938
G1 X140.888 Y96.493 E17.01868
G1 X141.478 Y96.034 E17.04354
G1 X142.114 Y95.639 E17.06844
G1 X142.788 Y95.315 E17.09332
G1 X143.493 Y95.065 E17.1182
G1 X144.221 Y94.891 E17.14309
G1 X144.963 Y94.796 E17.16797
G1 X145.478 Y94.777 E17.18511
G1 X148.408 Y94.776 E17.28257
G1 X149.155 Y94.816 E17.30745
G1 X149.893 Y94.935 E17.33231
G1 X150.151 Y94.891 E17.34101
G1 X150.893 Y94.796 E17.36589
G1 X151.408 Y94.777 E17.38304
G1 X154.338 Y94.776 E17.48049
G1 X155.085 Y94.816 E17.50537
G1 X155.823 Y94.935 E17.53023
G1 X156.545 Y95.132 E17.55512
G1 X157.241 Y95.405 E17.57999
G1 X157.904 Y95.751 E17.60486
G1 X158.527 Y96.166 E17.62976
G1 X159.102 Y96.645 E17.65465
G1 X159.622 Y97.182 E17.67951
G1 X160.082 Y97.772 E17.7044
G1 X160.476 Y98.408 E17.72928
G1 X160.801 Y99.082 E17.75417
G1 X161.051 Y99.787 E17.77905
G1 X161.225 Y100.514 E17.80391
G1 X161.321 Y101.256 E17.82879
G1 X161.34 Y101.776 E17.8461
G1 X161.34 Y107.647 E18.04137
G1 X161.689 Y107.879 E18.05531
G1 X162.263 Y108.358 E18.08018
G1 X162.784 Y108.895 E18.10506
G1 X163.243 Y109.485 E18.12992
G1 X163.638 Y110.121 E18.15483
G1 X163.962 Y110.795 E18.1797
G1 X164.212 Y111.5 E18.20458
G1 X164.386 Y112.228 E18.22947
G1 X164.481 Y112.97 E18.25435
G1 X164.5 Y113.487 E18.27156
G1 X164.5 Y116.741 E18.37979
G1 X166.086 Y117.48 E18.43798
G1 X166.843 Y117.891 E18.46663
G1 X169.732 Y119.7 E18.58001
G1 X170.437 Y120.205 E18.60885
G1 X173.081 Y122.358 E18.72226
G1 X173.722 Y122.951 E18.7513
G1 X176.075 Y125.414 E18.86459
G1 X176.631 Y126.072 E18.89325
G1 X178.665 Y128.807 E19.00661
G1 X179.141 Y129.538 E19.03563
G1 X180.819 Y132.505 E19.149
G1 X181.128 Y133.119 E19.17186
G1 X181.221 Y133.337 E19.17974
G1 X182.457 Y136.338 E19.28769
G1 X182.828 Y136.718 E19.30535
G1 X183.29 Y137.306 E19.33022
G1 X183.687 Y137.941 E19.35513
G1 X184.013 Y138.614 E19.38
G1 X184.266 Y139.318 E19.40489
G1 X184.443 Y140.045 E19.42977
G1 X184.541 Y140.786 E19.45463
G1 X184.562 Y141.331 E19.47277
G1 X184.561 Y146.73 E19.65234
G1 X184.521 Y147.477 E19.67723
G1 X184.439 Y147.979 E19.69414
G1 X184.529 Y148.576 E19.71422
G1 X184.561 Y149.244 E19.73647
G1 X184.562 Y154.644 E19.91607
G1 X184.522 Y155.391 E19.94095
G1 X184.403 Y156.129 E19.96582
G1 X184.205 Y156.851 E19.99072
G1 X183.932 Y157.547 E20.01558
G1 X183.586 Y158.21 E20.04046
G1 X183.171 Y158.833 E20.06535
G1 X182.692 Y159.407 E20.09022
G1 X182.456 Y159.642 E20.1013
G1 X181.329 Y162.413 E20.20079
G1 X180.987 Y163.135 E20.22736
G1 X179.481 Y165.889 E20.33176
G1 X179.061 Y166.563 E20.35818
G1 X177.256 Y169.124 E20.46239
G1 X176.758 Y169.75 E20.48899
G1 X174.67 Y172.091 E20.59332
G1 X174.105 Y172.656 E20.6199
G1 X171.764 Y174.744 E20.72423
G1 X171.14 Y175.24 E20.75075
G1 X168.578 Y177.047 E20.85502
G1 X167.9 Y177.47 E20.8816
G1 X165.146 Y178.975 E20.98598
G1 X164.605 Y179.241 E21.00603
G1 X164.352 Y179.349 E21.01518
G1 X161.649 Y180.444 E21.11218
G1 X161.269 Y180.815 E21.12985
G1 X160.681 Y181.277 E21.15472
G1 X160.046 Y181.674 E21.17963
G1 X159.373 Y182 E21.2045
G1 X158.669 Y182.253 E21.22938
G1 X157.942 Y182.43 E21.25427
G1 X157.201 Y182.528 E21.27913
G1 X156.656 Y182.549 E21.29727
G1 X151.257 Y182.548 E21.47684
G1 X150.51 Y182.508 E21.50172
G1 X150.008 Y182.426 E21.51864
G1 X149.411 Y182.516 E21.53872
G1 X148.743 Y182.548 E21.56096
G1 X143.344 Y182.549 E21.74053
G1 X142.597 Y182.509 E21.76541
G1 X141.859 Y182.39 E21.79028
G1 X141.137 Y182.192 E21.81518
G1 X140.441 Y181.919 E21.84004
G1 X139.778 Y181.573 E21.86492
G1 X139.155 Y181.158 E21.88981
G1 X138.581 Y180.679 E21.91468
G1 X138.345 Y180.443 E21.92578
G1 X135.622 Y179.338 E22.02352
G1 X135.259 Y179.179 E22.0367
G1 X134.854 Y178.975 E22.05178
G1 X132.1 Y177.47 E22.15617
G1 X131.422 Y177.047 E22.18275
G1 X128.86 Y175.24 E22.28702
G1 X128.236 Y174.744 E22.31353
G1 X125.895 Y172.656 E22.41787
